**kern	**kern
*part1	*part1
*staff2	*staff1
*I"Piano	*
*clefF4	*clefG2
*k[b-e-a-]	*k[b-e-a-]
=1	=1
*^	*^
8BB-L	[4.EE-	32ee-LLL	8g 8b-
.	.	32ffJ	.
.	.	16ee-JJ	.
8E-	.	8aa-L	8ccL 8ff
8BB-J	.	8ffJ	8a-J 8dd
=	=	=	=
8E-L	4.EE-]	4.gg	4.b- 4.ee-
8BB-	.	.	.
8E-J	.	.	.
=	=	=	=
8BB-L	[4.EE-	32ee-LLL	8gL 8b-
.	.	32ffJ	.
.	.	16ee-JJ	.
8E-	.	8aa-L	8cc 8ff
8BB-J	.	8ffJ	8a-J 8dd
=	=	=	=
8E-L	4.EE-]	4.gg	4.b- 4.ee-
8BB-	.	.	.
8E-J	.	.	.
*	*	*v	*v
=	=	=
8BB-L	[4.EE-	4a- 4cc 4ff
8E-	.	.
8BB-J	.	8cc 8ff 8aa-
=	=	=
8E-L	4.EE-]	4a- 4cc 4ff
8BB-	.	.
8E-J	.	8cc 8ff 8aa-
=	=	=
8BB-L	[4.EE-	4b- 4ee- 4gg
8E-	.	.
8BB-J	.	8g 8b- 8ee-
*v	*v	*
=	=
*-	*-
!!!system-decoration: {(s1,s2)}
